Newaita-dark/apps/48/amd.svg

<svg height="48pt" viewBox="0 0 48 48" width="48pt" xmlns="http://www.w3.org/2000/svg" xmlns:xlink="http://www.w3.org/1999/xlink"><linearGradient id="a" gradientUnits="userSpaceOnUse" x1="23.81478" x2="23.81478" y1="42.0509045" y2="44.03547050005"><stop offset="0" stop-opacity=".27451"/><stop offset="1" stop-opacity="0"/></linearGradient><linearGradient id="b"><stop offset="0" stop-opacity=".313726"/><stop offset=".222222" stop-opacity=".27451"/><stop offset="1" stop-opacity="0"/></linearGradient><radialGradient id="c" cx="450.908936" cy="189.579361" gradientTransform="matrix(.00000026 -.117199 -.210958 -.00000015 79.684395 95.392999)" gradientUnits="userSpaceOnUse" r="21.166656" xlink:href="#b"/><radialGradient id="d" cx="450.908936" cy="189.579361" gradientTransform="matrix(-.00000026 .117199 .210958 .00000015 -31.80678 -11.291218)" gradientUnits="userSpaceOnUse" r="21.166656" xlink:href="#b"/><radialGradient id="e" cx="450.908936" cy="189.579361" gradientTransform="matrix(-.00000026 -.117199 .210958 -.00000015 -31.80678 95.392999)" gradientUnits="userSpaceOnUse" r="21.166656" xlink:href="#b"/><radialGradient id="f" cx="450.908936" cy="189.579361" gradientTransform="matrix(.00000026 .117199 -.210958 .00000015 79.684393 -11.291219)" gradientUnits="userSpaceOnUse" r="21.166656" xlink:href="#b"/><linearGradient id="g" gradientUnits="userSpaceOnUse" x1="23.814786" x2="23.814786" y1="42.0509015" y2="4.34415649995"><stop offset="0" stop-color="#f44336"/><stop offset="1" stop-color="#ef5350"/></linearGradient><linearGradient id="h" gradientUnits="userSpaceOnUse" x1="23.814786" x2="23.814786" y1="34.11263699995" y2="12.282417"><stop offset="0" stop-color="#e0e0e0"/><stop offset="1" stop-color="#eee"/></linearGradient><path d="m7.691406 42.050781h32.496094v1.984375h-32.496094zm0 0" fill="url(#a)"/><path d="m40.1875 42.050781h3.96875v-1.984375h-3.96875zm0 0" fill="url(#c)"/><path d="m7.691406 42.050781h-3.96875v1.984375h3.96875zm0 0" fill="url(#d)"/><path d="m7.691406 42.050781h-3.96875v-1.984375h3.96875zm0 0" fill="url(#e)"/><path d="m40.1875 42.050781h3.96875v1.984375h-3.96875zm0 0" fill="url(#f)"/><path d="m5.457031 4.34375h36.714844c.820313 0 1.488281.667969 1.488281 1.488281v34.730469c0 .820312-.667968 1.488281-1.488281 1.488281h-36.714844c-.820312 0-1.488281-.667969-1.488281-1.488281v-34.730469c0-.820312.667969-1.488281 1.488281-1.488281zm0 0" fill="url(#g)"/><path d="m5.457031 4.464844c-.824219 0-1.488281.664062-1.488281 1.488281v.246094c0-.824219.664062-1.488281 1.488281-1.488281h36.714844c.824219 0 1.488281.664062 1.488281 1.488281v-.246094c0-.824219-.664062-1.488281-1.488281-1.488281zm0 0" fill="#fff" fill-opacity=".392157"/><path d="m5.457031 41.929688c-.824219 0-1.488281-.664063-1.488281-1.488282v-.246094c0 .824219.664062 1.488282 1.488281 1.488282h36.714844c.824219 0 1.488281-.664063 1.488281-1.488282v.246094c0 .824219-.664062 1.488282-1.488281 1.488282zm0 0" fill="#030303" fill-opacity=".235294"/><path d="m13.515625 13.765625c-.261719.25-.457031.574219-.550781.9375l6.746094 5.273437.132812-.101562v.207031l.382812.296875c.167969-.132812.378907-.210937.613282-.210937h5.953125c.546875 0 .992187.441406.992187.992187v-1.371094c0-.550781-.445312-.992187-.992187-.992187h-5.953125c-.234375 0-.445313.078125-.613282.210937zm14.269531 12.859375v.488281c0 .230469-.082031.445313-.210937.613281l5.671875 7.261719c.855468-.222656 1.484375-.996093 1.484375-1.921875v-1.371094c0 .925782-.628907 1.699219-1.484375 1.921876zm-1.90625 1.480469-3.71875 5.574219h-7.277344c-1.097656 0-1.984374-.886719-1.984374-1.984376v1.371094c0 1.101563.886718 1.984375 1.984374 1.984375h7.277344l4.632813-6.945312zm0 0" fill-opacity=".235294"/><path d="m5.457031 4.203125c-.898437 0-1.628906.730469-1.628906 1.628906v34.730469c0 .898438.730469 1.628906 1.628906 1.628906h36.714844c.898437 0 1.628906-.730468 1.628906-1.628906v-34.730469c0-.898437-.730469-1.628906-1.628906-1.628906zm0 .28125h36.714844c.75 0 1.347656.597656 1.347656 1.347656v34.730469c0 .75-.597656 1.347656-1.347656 1.347656h-36.714844c-.75 0-1.347656-.597656-1.347656-1.347656v-34.730469c0-.75.597656-1.347656 1.347656-1.347656zm0 0" fill="#212121"/><path d="m14.882812 12.28125c-.925781 0-1.699218.628906-1.917968 1.484375l7.261718 5.675781c.167969-.132812.378907-.214844.613282-.214844h5.953125c.546875 0 .992187.445313.992187.992188v5.957031c0 .230469-.082031.441407-.210937.613281l5.671875 7.261719c.855468-.222656 1.484375-.996093 1.484375-1.921875v-17.863281c0-1.097656-.886719-1.984375-1.984375-1.984375zm4.960938 8.023438-6.945312 5.429687v6.394531c0 1.097656.886718 1.984375 1.984374 1.984375h7.277344l4.632813-6.945312h-5.953125c-.550782 0-.996094-.445313-.996094-.992188zm0 0" fill="url(#h)"/><path d="m14.882812 12.28125c-.925781 0-1.699218.628906-1.917968 1.484375l.253906.199219c.351562-.542969.964844-.902344 1.664062-.902344h17.863282c1.097656 0 1.984375.886719 1.984375 1.984375v-.78125c0-1.097656-.886719-1.984375-1.984375-1.984375zm4.960938 8.023438-6.945312 5.429687v.777344l6.945312-5.425781zm0 5.871093v.78125c0 .546875.445312.992188.996094.992188h5.429687l.523438-.78125h-5.953125c-.550782 0-.996094-.445313-.996094-.992188zm7.941406 0c0 .230469-.082031.441407-.210937.613281l.203125.261719c.003906-.03125.007812-.0625.007812-.09375zm0 0" fill="#fff"/><path d="m14.882812 12.140625c-.988281 0-1.820312.675781-2.054687 1.589844-.015625.054687.003906.113281.046875.144531l7.261719 5.675781c.050781.039063.125.039063.175781 0 .144531-.113281.324219-.183593.527344-.183593h5.953125c.472656 0 .851562.378906.851562.851562v5.957031c0 .199219-.070312.378907-.183593.523438-.039063.050781-.039063.125 0 .175781l5.675781 7.261719c.03125.042969.089843.0625.144531.046875.917969-.234375 1.589844-1.066406 1.589844-2.054688v-17.863281c0-1.171875-.949219-2.125-2.125-2.125zm0 .28125h17.863282c1.023437 0 1.84375.820313 1.84375 1.84375v17.863281c0 .828125-.542969 1.523438-1.292969 1.757813l-5.550781-7.105469c.109375-.175781.179687-.382812.179687-.605469v-5.957031c0-.625-.507812-1.132812-1.132812-1.132812h-5.953125c-.226563 0-.433594.070312-.609375.179687l-7.105469-5.550781c.234375-.75.929688-1.292969 1.757812-1.292969zm4.957032 7.742187c-.027344.003907-.058594.011719-.082032.03125l-6.945312 5.425782c-.035156.027344-.054688.066406-.054688.113281v6.394531c0 1.175782.953126 2.125 2.125 2.125h7.277344c.046875 0 .089844-.023437.117188-.0625l4.632812-6.945312c.027344-.042969.03125-.101563.003906-.144532-.023437-.046874-.070312-.074218-.121093-.074218h-5.953125c-.476563 0-.855469-.378906-.855469-.851563v-5.871093c0-.035157-.011719-.074219-.039063-.101563-.027343-.023437-.066406-.039063-.105468-.039063zm-.136719.429688v5.582031c0 .625.507813 1.132813 1.136719 1.132813h5.6875l-4.441406 6.664062h-7.203126c-1.023437 0-1.84375-.820312-1.84375-1.84375v-6.328125zm0 0" fill="#212121"/></svg>

<?xml version="1.0" encoding="UTF-8"?>
<svg xmlns="http://www.w3.org/2000/svg" xmlns:xlink="http://www.w3.org/1999/xlink" width="48pt" height="48pt" viewBox="0 0 48 48" version="1.1">
<defs>
<linearGradient id="linear0" gradientUnits="userSpaceOnUse" x1="254" y1="233.5" x2="254" y2="254.666672" gradientTransform="matrix(0.093759,0,0,0.093759,-0.00000572259,20.158178)">
<stop offset="0" style="stop-color:rgb(0%,0%,0%);stop-opacity:0.27451;"/>
<stop offset="1" style="stop-color:rgb(0%,0%,0%);stop-opacity:0;"/>
</linearGradient>
<radialGradient id="radial0" gradientUnits="userSpaceOnUse" cx="450.908936" cy="189.579361" fx="450.908936" fy="189.579361" r="21.166656" gradientTransform="matrix(0.000000261256,-0.117199,-0.210958,-0.000000152308,79.684395,95.392999)">
<stop offset="0" style="stop-color:rgb(0%,0%,0%);stop-opacity:0.313726;"/>
<stop offset="0.222222" style="stop-color:rgb(0%,0%,0%);stop-opacity:0.27451;"/>
<stop offset="1" style="stop-color:rgb(0%,0%,0%);stop-opacity:0;"/>
</radialGradient>
<radialGradient id="radial1" gradientUnits="userSpaceOnUse" cx="450.908936" cy="189.579361" fx="450.908936" fy="189.579361" r="21.166656" gradientTransform="matrix(-0.000000261256,0.117199,0.210958,0.000000152308,-31.80678,-11.291218)">
<stop offset="0" style="stop-color:rgb(0%,0%,0%);stop-opacity:0.313726;"/>
<stop offset="0.222222" style="stop-color:rgb(0%,0%,0%);stop-opacity:0.27451;"/>
<stop offset="1" style="stop-color:rgb(0%,0%,0%);stop-opacity:0;"/>
</radialGradient>
<radialGradient id="radial2" gradientUnits="userSpaceOnUse" cx="450.908936" cy="189.579361" fx="450.908936" fy="189.579361" r="21.166656" gradientTransform="matrix(-0.000000261256,-0.117199,0.210958,-0.000000152308,-31.80678,95.392999)">
<stop offset="0" style="stop-color:rgb(0%,0%,0%);stop-opacity:0.313726;"/>
<stop offset="0.222222" style="stop-color:rgb(0%,0%,0%);stop-opacity:0.27451;"/>
<stop offset="1" style="stop-color:rgb(0%,0%,0%);stop-opacity:0;"/>
</radialGradient>
<radialGradient id="radial3" gradientUnits="userSpaceOnUse" cx="450.908936" cy="189.579361" fx="450.908936" fy="189.579361" r="21.166656" gradientTransform="matrix(0.000000261256,0.117199,-0.210958,0.000000152308,79.684393,-11.291219)">
<stop offset="0" style="stop-color:rgb(0%,0%,0%);stop-opacity:0.313726;"/>
<stop offset="0.222222" style="stop-color:rgb(0%,0%,0%);stop-opacity:0.27451;"/>
<stop offset="1" style="stop-color:rgb(0%,0%,0%);stop-opacity:0;"/>
</radialGradient>
<linearGradient id="linear1" gradientUnits="userSpaceOnUse" x1="254" y1="233.5" x2="254" y2="-168.666672" gradientTransform="matrix(0.093759,0,0,0.093759,0,20.158175)">
<stop offset="0" style="stop-color:rgb(95.686275%,26.274511%,21.176471%);stop-opacity:1;"/>
<stop offset="1" style="stop-color:rgb(93.725491%,32.549021%,31.37255%);stop-opacity:1;"/>
</linearGradient>
<linearGradient id="linear2" gradientUnits="userSpaceOnUse" x1="254" y1="148.833328" x2="254" y2="-84" gradientTransform="matrix(0.093759,0,0,0.093759,0,20.158173)">
<stop offset="0" style="stop-color:rgb(87.843138%,87.843138%,87.843138%);stop-opacity:1;"/>
<stop offset="1" style="stop-color:rgb(93.333334%,93.333334%,93.333334%);stop-opacity:1;"/>
</linearGradient>
</defs>
<g id="surface1">
<path style=" stroke:none;fill-rule:nonzero;fill:url(#linear0);" d="M 7.691406 42.050781 L 40.1875 42.050781 L 40.1875 44.035156 L 7.691406 44.035156 Z M 7.691406 42.050781 "/>
<path style=" stroke:none;fill-rule:nonzero;fill:url(#radial0);" d="M 40.1875 42.050781 L 44.15625 42.050781 L 44.15625 40.066406 L 40.1875 40.066406 Z M 40.1875 42.050781 "/>
<path style=" stroke:none;fill-rule:nonzero;fill:url(#radial1);" d="M 7.691406 42.050781 L 3.722656 42.050781 L 3.722656 44.035156 L 7.691406 44.035156 Z M 7.691406 42.050781 "/>
<path style=" stroke:none;fill-rule:nonzero;fill:url(#radial2);" d="M 7.691406 42.050781 L 3.722656 42.050781 L 3.722656 40.066406 L 7.691406 40.066406 Z M 7.691406 42.050781 "/>
<path style=" stroke:none;fill-rule:nonzero;fill:url(#radial3);" d="M 40.1875 42.050781 L 44.15625 42.050781 L 44.15625 44.035156 L 40.1875 44.035156 Z M 40.1875 42.050781 "/>
<path style=" stroke:none;fill-rule:nonzero;fill:url(#linear1);" d="M 5.457031 4.34375 L 42.171875 4.34375 C 42.992188 4.34375 43.660156 5.011719 43.660156 5.832031 L 43.660156 40.5625 C 43.660156 41.382812 42.992188 42.050781 42.171875 42.050781 L 5.457031 42.050781 C 4.636719 42.050781 3.96875 41.382812 3.96875 40.5625 L 3.96875 5.832031 C 3.96875 5.011719 4.636719 4.34375 5.457031 4.34375 Z M 5.457031 4.34375 "/>
<path style=" stroke:none;fill-rule:nonzero;fill:rgb(100%,100%,100%);fill-opacity:0.392157;" d="M 5.457031 4.464844 C 4.632812 4.464844 3.96875 5.128906 3.96875 5.953125 L 3.96875 6.199219 C 3.96875 5.375 4.632812 4.710938 5.457031 4.710938 L 42.171875 4.710938 C 42.996094 4.710938 43.660156 5.375 43.660156 6.199219 L 43.660156 5.953125 C 43.660156 5.128906 42.996094 4.464844 42.171875 4.464844 Z M 5.457031 4.464844 "/>
<path style=" stroke:none;fill-rule:nonzero;fill:rgb(1.176471%,1.176471%,1.176471%);fill-opacity:0.235294;" d="M 5.457031 41.929688 C 4.632812 41.929688 3.96875 41.265625 3.96875 40.441406 L 3.96875 40.195312 C 3.96875 41.019531 4.632812 41.683594 5.457031 41.683594 L 42.171875 41.683594 C 42.996094 41.683594 43.660156 41.019531 43.660156 40.195312 L 43.660156 40.441406 C 43.660156 41.265625 42.996094 41.929688 42.171875 41.929688 Z M 5.457031 41.929688 "/>
<path style=" stroke:none;fill-rule:nonzero;fill:rgb(0%,0%,0%);fill-opacity:0.235294;" d="M 13.515625 13.765625 C 13.253906 14.015625 13.058594 14.339844 12.964844 14.703125 L 19.710938 19.976562 L 19.84375 19.875 L 19.84375 20.082031 L 20.226562 20.378906 C 20.394531 20.246094 20.605469 20.167969 20.839844 20.167969 L 26.792969 20.167969 C 27.339844 20.167969 27.785156 20.609375 27.785156 21.160156 L 27.785156 19.789062 C 27.785156 19.238281 27.339844 18.796875 26.792969 18.796875 L 20.839844 18.796875 C 20.605469 18.796875 20.394531 18.875 20.226562 19.007812 Z M 27.785156 26.625 L 27.785156 27.113281 C 27.785156 27.34375 27.703125 27.558594 27.574219 27.726562 L 33.246094 34.988281 C 34.101562 34.765625 34.730469 33.992188 34.730469 33.066406 L 34.730469 31.695312 C 34.730469 32.621094 34.101562 33.394531 33.246094 33.617188 Z M 25.878906 28.105469 L 22.160156 33.679688 L 14.882812 33.679688 C 13.785156 33.679688 12.898438 32.792969 12.898438 31.695312 L 12.898438 33.066406 C 12.898438 34.167969 13.785156 35.050781 14.882812 35.050781 L 22.160156 35.050781 L 26.792969 28.105469 Z M 25.878906 28.105469 "/>
<path style=" stroke:none;fill-rule:nonzero;fill:rgb(12.941177%,12.941177%,12.941177%);fill-opacity:1;" d="M 5.457031 4.203125 C 4.558594 4.203125 3.828125 4.933594 3.828125 5.832031 L 3.828125 40.5625 C 3.828125 41.460938 4.558594 42.191406 5.457031 42.191406 L 42.171875 42.191406 C 43.070312 42.191406 43.800781 41.460938 43.800781 40.5625 L 43.800781 5.832031 C 43.800781 4.933594 43.070312 4.203125 42.171875 4.203125 Z M 5.457031 4.484375 L 42.171875 4.484375 C 42.921875 4.484375 43.519531 5.082031 43.519531 5.832031 L 43.519531 40.5625 C 43.519531 41.3125 42.921875 41.910156 42.171875 41.910156 L 5.457031 41.910156 C 4.707031 41.910156 4.109375 41.3125 4.109375 40.5625 L 4.109375 5.832031 C 4.109375 5.082031 4.707031 4.484375 5.457031 4.484375 Z M 5.457031 4.484375 "/>
<path style=" stroke:none;fill-rule:nonzero;fill:url(#linear2);" d="M 14.882812 12.28125 C 13.957031 12.28125 13.183594 12.910156 12.964844 13.765625 L 20.226562 19.441406 C 20.394531 19.308594 20.605469 19.226562 20.839844 19.226562 L 26.792969 19.226562 C 27.339844 19.226562 27.785156 19.671875 27.785156 20.21875 L 27.785156 26.175781 C 27.785156 26.40625 27.703125 26.617188 27.574219 26.789062 L 33.246094 34.050781 C 34.101562 33.828125 34.730469 33.054688 34.730469 32.128906 L 34.730469 14.265625 C 34.730469 13.167969 33.84375 12.28125 32.746094 12.28125 Z M 19.84375 20.304688 L 12.898438 25.734375 L 12.898438 32.128906 C 12.898438 33.226562 13.785156 34.113281 14.882812 34.113281 L 22.160156 34.113281 L 26.792969 27.167969 L 20.839844 27.167969 C 20.289062 27.167969 19.84375 26.722656 19.84375 26.175781 Z M 19.84375 20.304688 "/>
<path style=" stroke:none;fill-rule:nonzero;fill:rgb(100%,100%,100%);fill-opacity:1;" d="M 14.882812 12.28125 C 13.957031 12.28125 13.183594 12.910156 12.964844 13.765625 L 13.21875 13.964844 C 13.570312 13.421875 14.183594 13.0625 14.882812 13.0625 L 32.746094 13.0625 C 33.84375 13.0625 34.730469 13.949219 34.730469 15.046875 L 34.730469 14.265625 C 34.730469 13.167969 33.84375 12.28125 32.746094 12.28125 Z M 19.84375 20.304688 L 12.898438 25.734375 L 12.898438 26.511719 L 19.84375 21.085938 Z M 19.84375 26.175781 L 19.84375 26.957031 C 19.84375 27.503906 20.289062 27.949219 20.839844 27.949219 L 26.269531 27.949219 L 26.792969 27.167969 L 20.839844 27.167969 C 20.289062 27.167969 19.84375 26.722656 19.84375 26.175781 Z M 27.785156 26.175781 C 27.785156 26.40625 27.703125 26.617188 27.574219 26.789062 L 27.777344 27.050781 C 27.78125 27.019531 27.785156 26.988281 27.785156 26.957031 Z M 27.785156 26.175781 "/>
<path style=" stroke:none;fill-rule:nonzero;fill:rgb(12.941177%,12.941177%,12.941177%);fill-opacity:1;" d="M 14.882812 12.140625 C 13.894531 12.140625 13.0625 12.816406 12.828125 13.730469 C 12.8125 13.785156 12.832031 13.84375 12.875 13.875 L 20.136719 19.550781 C 20.1875 19.589844 20.261719 19.589844 20.3125 19.550781 C 20.457031 19.4375 20.636719 19.367188 20.839844 19.367188 L 26.792969 19.367188 C 27.265625 19.367188 27.644531 19.746094 27.644531 20.21875 L 27.644531 26.175781 C 27.644531 26.375 27.574219 26.554688 27.460938 26.699219 C 27.421875 26.75 27.421875 26.824219 27.460938 26.875 L 33.136719 34.136719 C 33.167969 34.179688 33.226562 34.199219 33.28125 34.183594 C 34.199219 33.949219 34.871094 33.117188 34.871094 32.128906 L 34.871094 14.265625 C 34.871094 13.09375 33.921875 12.140625 32.746094 12.140625 Z M 14.882812 12.421875 L 32.746094 12.421875 C 33.769531 12.421875 34.589844 13.242188 34.589844 14.265625 L 34.589844 32.128906 C 34.589844 32.957031 34.046875 33.652344 33.296875 33.886719 L 27.746094 26.78125 C 27.855469 26.605469 27.925781 26.398438 27.925781 26.175781 L 27.925781 20.21875 C 27.925781 19.59375 27.417969 19.085938 26.792969 19.085938 L 20.839844 19.085938 C 20.613281 19.085938 20.40625 19.15625 20.230469 19.265625 L 13.125 13.714844 C 13.359375 12.964844 14.054688 12.421875 14.882812 12.421875 Z M 19.839844 20.164062 C 19.8125 20.167969 19.78125 20.175781 19.757812 20.195312 L 12.8125 25.621094 C 12.777344 25.648438 12.757812 25.6875 12.757812 25.734375 L 12.757812 32.128906 C 12.757812 33.304688 13.710938 34.253906 14.882812 34.253906 L 22.160156 34.253906 C 22.207031 34.253906 22.25 34.230469 22.277344 34.191406 L 26.910156 27.246094 C 26.9375 27.203125 26.941406 27.144531 26.914062 27.101562 C 26.890625 27.054688 26.84375 27.027344 26.792969 27.027344 L 20.839844 27.027344 C 20.363281 27.027344 19.984375 26.648438 19.984375 26.175781 L 19.984375 20.304688 C 19.984375 20.269531 19.972656 20.230469 19.945312 20.203125 C 19.917969 20.179688 19.878906 20.164062 19.839844 20.164062 Z M 19.703125 20.59375 L 19.703125 26.175781 C 19.703125 26.800781 20.210938 27.308594 20.839844 27.308594 L 26.527344 27.308594 L 22.085938 33.972656 L 14.882812 33.972656 C 13.859375 33.972656 13.039062 33.152344 13.039062 32.128906 L 13.039062 25.800781 Z M 19.703125 20.59375 "/>
</g>
</svg>
